svg/fluentui-system-icons/ic_fluent_mail_open_person_24_filled.svg

<svg width="24" height="24" viewBox="0 0 24 24" fill="none" xmlns="http://www.w3.org/2000/svg">
<path d="M11.6532 14.1649L2 9.127V16.75L2.0053 16.9344C2.10091 18.6435 3.51712 20 5.25015 20H13.002C13.0007 19.9583 13 19.9167 13 19.875V19.772C13 18.2401 14.2419 17 15.7727 17H16.0505C15.4022 16.3647 15 15.4793 15 14.5C15 13.7234 15.2529 13.0059 15.6809 12.4254L12.3471 14.1649C12.1297 14.2784 11.8706 14.2784 11.6532 14.1649ZM11.6168 2.10535L3.10023 7.16928L2.9299 7.28128C2.76564 7.40027 2.61991 7.5397 2.49538 7.69491L12.0002 12.6541L21.5049 7.69491C21.3389 7.48797 21.1352 7.30906 20.9001 7.16928L12.3835 2.10535L12.279 2.05375C12.0644 1.96775 11.8193 1.98495 11.6168 2.10535ZM21 14.5C21 15.8807 19.8807 17 18.5 17C17.1193 17 16 15.8807 16 14.5C16 13.1193 17.1193 12 18.5 12C19.8807 12 21 13.1193 21 14.5ZM23 19.875C23 21.4315 21.7143 23 18.5 23C15.2857 23 14 21.4374 14 19.875V19.772C14 18.7929 14.7937 18 15.7727 18H21.2273C22.2063 18 23 18.793 23 19.772V19.875Z" fill="#212121"/>
</svg>

<svg xmlns="http://www.w3.org/2000/svg" width="24" height="24"><path d="M11.653 14.165 2 9.127v7.623l.005.184A3.25 3.25 0 0 0 5.25 20h7.752a4.008 4.008 0 0 1-.002-.125v-.103A2.772 2.772 0 0 1 15.773 17h.277A3.49 3.49 0 0 1 15 14.5c0-.777.253-1.494.68-2.075l-3.333 1.74a.75.75 0 0 1-.694 0Zm-.036-12.06L3.1 7.17l-.17.112a2.31 2.31 0 0 0-.435.414L12 12.655l9.505-4.96a2.247 2.247 0 0 0-.605-.526l-8.516-5.064-.105-.051a.75.75 0 0 0-.662.051ZM21 14.5a2.5 2.5 0 1 1-5 0 2.5 2.5 0 0 1 5 0Zm2 5.375C23 21.431 21.714 23 18.5 23S14 21.437 14 19.875v-.103c0-.98.794-1.772 1.773-1.772h5.454c.98 0 1.773.793 1.773 1.772v.103Z"/></svg>
